X: 11161
M: 2/4
L: 1/8
K: C
c2 Bd | {d}c2 zG | (c.e) (A.f) | (e2 d)G | e2 d>c |\
c2 GG | f2 (e/g/)(f/e/) | {e}d2 zd | e2 ^fg | d2 (c/e/)(c/A/) |
{e}d2 dg | g>BBB | ABcd | e2 d>c | c3 |]


